other/periodical.svg

<?xml version="1.0" encoding="UTF-8" standalone="no"?>
<svg
   xmlns:dc="http://purl.org/dc/elements/1.1/"
   xmlns:cc="http://creativecommons.org/ns#"
   xmlns:rdf="http://www.w3.org/1999/02/22-rdf-syntax-ns#"
   xmlns:svg="http://www.w3.org/2000/svg"
   xmlns="http://www.w3.org/2000/svg"
   xmlns:sodipodi="http://sodipodi.sourceforge.net/DTD/sodipodi-0.dtd"
   xmlns:inkscape="http://www.inkscape.org/namespaces/inkscape"
   width="48"
   height="48"
   viewBox="0 0 48 48"
   version="1.1"
   id="svg846"
   sodipodi:docname="periodical.svg"
   inkscape:version="0.92.3 (2405546, 2018-03-11)">
  <metadata
     id="metadata852">
    <rdf:RDF>
      <cc:Work
         rdf:about="">
        <dc:format>image/svg+xml</dc:format>
        <dc:type
           rdf:resource="http://purl.org/dc/dcmitype/StillImage" />
        <dc:title></dc:title>
      </cc:Work>
    </rdf:RDF>
  </metadata>
  <defs
     id="defs850" />
  <sodipodi:namedview
     pagecolor="#ffffff"
     bordercolor="#666666"
     borderopacity="1"
     objecttolerance="10"
     gridtolerance="10"
     guidetolerance="10"
     inkscape:pageopacity="0"
     inkscape:pageshadow="2"
     inkscape:window-width="2560"
     inkscape:window-height="1385"
     id="namedview848"
     showgrid="false"
     inkscape:pagecheckerboard="true"
     inkscape:zoom="8.8682976"
     inkscape:cx="59.761022"
     inkscape:cy="12.266845"
     inkscape:window-x="1920"
     inkscape:window-y="27"
     inkscape:window-maximized="1"
     inkscape:current-layer="svg846" />
  <path
     d="M 7 5 C 5.892 5 5 5.892 5 7 L 5 41 C 5 42.108 5.892 43 7 43 L 41 43 C 42.108 43 43 42.108 43 41 L 43 7 C 43 5.892 42.108 5 41 5 L 7 5 z M 22.751953 8.5488281 C 23.093985 8.2034128 28.045839 15.17621 29.703125 18.337891 C 34.158587 26.837783 34.018158 32.600832 29.273438 35.935547 C 27.128273 37.443225 23.607884 37.821661 21.314453 36.791016 C 17.841265 35.230199 16.188189 32.381583 16.416016 28.349609 C 16.549946 25.97937 16.917969 24.92235 19.15625 20.455078 C 21.296483 16.183497 21.815782 14.728612 22.181641 11.988281 C 22.424632 10.168258 22.681017 8.6204654 22.751953 8.5488281 z "
     id="rect844"
     style="fill:#ffffff;fill-opacity:1" />
</svg>

<?xml version="1.0" encoding="UTF-8"?>
<svg version="1.1" viewBox="0 0 48 48" xmlns="http://www.w3.org/2000/svg">
    <path d="m7 5c-1.108 0-2 0.892-2 2v34c0 1.108 0.892 2 2 2h34c1.108 0 2-0.892 2-2v-34c0-1.108-0.892-2-2-2h-34zm15.752 3.5488c0.34203-0.34542 5.2939 6.6274 6.9512 9.7891 4.4555 8.4999 4.315 14.263-0.42969 17.598-2.1452 1.5077-5.6656 1.8861-7.959 0.85547-3.4732-1.5608-5.1263-4.4094-4.8984-8.4414 0.13393-2.3702 0.50195-3.4273 2.7402-7.8945 2.1402-4.2716 2.6595-5.7265 3.0254-8.4668 0.24299-1.82 0.49938-3.3678 0.57031-3.4395z" fill="#fff"/>
</svg>
